symbols/web/airline_seat_recline_extra/materialsymbolsrounded/airline_seat_recline_extra_wght700_48px.svg

<svg xmlns="http://www.w3.org/2000/svg" height="48" width="48"><path d="M14.8 11q-1.65 0-2.825-1.175Q10.8 8.65 10.8 7q0-1.7 1.175-2.925Q13.15 2.85 14.8 2.85q1.7 0 2.925 1.225Q18.95 5.3 18.95 7q0 1.65-1.225 2.825Q16.5 11 14.8 11ZM14 40.15q-2 0-3.175-1.1Q9.65 37.95 9.25 36L5.1 15.25q-.2-1 .375-1.75t1.675-.75q.75 0 1.35.475.6.475.75 1.225l4 21.55H25.8q.85 0 1.45.6t.6 1.45q0 .9-.6 1.5t-1.45.6Zm26.85 3.25q-.6.4-1.325.2t-1.075-.85l-5.15-9H18.25q-1.3 0-2.325-.75-1.025-.75-1.275-2L12.5 19.45q-.5-2.65 1.05-4.675t4.6-2.025q1.5 0 3.1 1.15t2.1 3.3l2 10.95h6.75q1.3 0 2.075.7.775.7 1.475 1.9l5.9 10.15q.35.6.125 1.35-.225.75-.825 1.15Z"/></svg>

<svg xmlns="http://www.w3.org/2000/svg" height="48" width="48"><path d="M14.8 11Q13.15 11 11.975 9.825Q10.8 8.65 10.8 7Q10.8 5.3 11.975 4.075Q13.15 2.85 14.8 2.85Q16.5 2.85 17.725 4.075Q18.95 5.3 18.95 7Q18.95 8.65 17.725 9.825Q16.5 11 14.8 11ZM14 40.15Q12 40.15 10.825 39.05Q9.65 37.95 9.25 36L5.1 15.25Q4.9 14.25 5.475 13.5Q6.05 12.75 7.15 12.75Q7.9 12.75 8.5 13.225Q9.1 13.7 9.25 14.45L13.25 36Q13.25 36 13.25 36Q13.25 36 13.25 36H25.8Q26.65 36 27.25 36.6Q27.85 37.2 27.85 38.05Q27.85 38.95 27.25 39.55Q26.65 40.15 25.8 40.15ZM40.85 43.4Q40.25 43.8 39.525 43.6Q38.8 43.4 38.45 42.75L33.3 33.75H18.25Q16.95 33.75 15.925 33Q14.9 32.25 14.65 31L12.5 19.45Q12 16.8 13.55 14.775Q15.1 12.75 18.15 12.75Q19.65 12.75 21.25 13.9Q22.85 15.05 23.35 17.2L25.35 28.15H32.1Q33.4 28.15 34.175 28.85Q34.95 29.55 35.65 30.75L41.55 40.9Q41.9 41.5 41.675 42.25Q41.45 43 40.85 43.4Z"/></svg>
